X: 04086
T: SUSAN'S HORNPIPE
C: Bob McQuillen 22 Feb 79
B: Bob's Note Book 04 #86
R: hornpipe, reel
Z: 2020 John Chambers <jc:trillian.mit.edu>
M: C
L: 1/8
K: Em
GE \
| B,2E2 E2EF | GFEG F2GA | BcBA G2E2 | DEDB, D2ED |
| B,2E2 E2EF | GFEG F2GA | BcBA GFED | B,2E2 E2 :|
|: Bc \
| d2de dBGB | AGAB A2Bc | dBAB GEFG | ABAF D2ED |
| B,2E2 EFGA | BAGB A2Bd | e2dB AGED | B,2E2 E2 :|
%%begintext align
%% With love to Susan Elberger -
%% not many people are as
%% nice to me as you are, Susy!
%%endtext

%%sep 1 1 500

%%sep 1 1 500

